src/assets/Logo.svg

<?xml version="1.0" encoding="UTF-8" standalone="no"?>
<svg
   xmlns:dc="http://purl.org/dc/elements/1.1/"
   xmlns:cc="http://creativecommons.org/ns#"
   xmlns:rdf="http://www.w3.org/1999/02/22-rdf-syntax-ns#"
   xmlns:svg="http://www.w3.org/2000/svg"
   xmlns="http://www.w3.org/2000/svg"
   xmlns:sodipodi="http://sodipodi.sourceforge.net/DTD/sodipodi-0.dtd"
   xmlns:inkscape="http://www.inkscape.org/namespaces/inkscape"
   width="140px"
   height="48px"
   viewBox="0 0 140 48"
   version="1.1"
   id="svg20"
   sodipodi:docname="Logo.svg"
   inkscape:version="0.92.3 (2405546, 2018-03-11)">
  <metadata
     id="metadata24">
    <rdf:RDF>
      <cc:Work
         rdf:about="">
        <dc:format>image/svg+xml</dc:format>
        <dc:type
           rdf:resource="http://purl.org/dc/dcmitype/StillImage" />
      </cc:Work>
    </rdf:RDF>
  </metadata>
  <sodipodi:namedview
     pagecolor="#ffffff"
     bordercolor="#666666"
     borderopacity="1"
     objecttolerance="10"
     gridtolerance="10"
     guidetolerance="10"
     inkscape:pageopacity="0"
     inkscape:pageshadow="2"
     inkscape:window-width="3796"
     inkscape:window-height="2130"
     id="namedview22"
     showgrid="false"
     inkscape:zoom="13.57645"
     inkscape:cx="63.820771"
     inkscape:cy="24.379049"
     inkscape:window-x="44"
     inkscape:window-y="0"
     inkscape:window-maximized="1"
     inkscape:current-layer="svg20"
     showguides="true"
     inkscape:guide-bbox="true">
    <sodipodi:guide
       position="37.417734,52.959352"
       orientation="1,0"
       id="guide884"
       inkscape:locked="false" />
  </sodipodi:namedview>
  <!-- Generator: sketchtool 52.2 (67145) - http://www.bohemiancoding.com/sketch -->
  <title
     id="title2">BF7468AE-16BB-4698-8F41-BE253E1D10E6</title>
  <desc
     id="desc4">Created with sketchtool.</desc>
  <defs
     id="defs11">
    <linearGradient
       x1="25.789107"
       y1="12.889323"
       x2="0"
       y2="46.592777"
       id="linearGradient-1"
       gradientTransform="scale(0.84162541,1.1881771)"
       gradientUnits="userSpaceOnUse">
      <stop
         stop-color="#63B4F5"
         offset="0%"
         id="stop6" />
      <stop
         stop-color="#017EE5"
         offset="100%"
         id="stop8" />
    </linearGradient>
  </defs>
  <g
     id="g856"
     transform="matrix(0.85743762,0.15815737,-0.15718474,0.86274326,7.1647958,0.75280055)">
    <g
       id="Group-6"
       style="fill:none;fill-rule:evenodd;stroke:none;stroke-width:1">
      <path
         d="m 4,0 h 26 c 2.209139,0 4,1.790861 4,4 v 40 c 0,2.209139 -1.790861,4 -4,4 H 4 C 1.790861,48 0,46.209139 0,44 V 4 C 0,1.790861 1.790861,0 4,0 Z"
         id="Container--2"
         style="fill:url(#linearGradient-1)"
         inkscape:connector-curvature="0" />
      <path
         d="M 15.701535,13.605634 C 15.141187,13.342722 14.722072,13.011739 14.444176,12.612676 14.16628,12.213613 14.018223,11.802819 14,11.380282 c 0,-0.08451 0.02733,-0.15493 0.082,-0.211268 0.05467,-0.05634 0.123002,-0.08451 0.205004,-0.08451 h 1.257359 c 0.20045,0 0.337118,0.0939 0.410008,0.28169 0.20045,0.66667 0.80179,1 1.804037,1 0.555792,0 0.990852,-0.131454 1.305194,-0.394366 0.314341,-0.262912 0.47151,-0.638495 0.47151,-1.126761 0,-0.488265 -0.143502,-0.842721 -0.430509,-1.0633799 C 18.817597,9.5610318 18.396204,9.4507042 17.840412,9.4507042 h -1.407695 c -0.09111,0 -0.168559,-0.032864 -0.232339,-0.098592 -0.06378,-0.065728 -0.09567,-0.1455395 -0.09567,-0.2394366 V 8.5070423 c 0,-0.1784047 0.05922,-0.3192484 0.17767,-0.4225353 l 2.432717,-2.4507042 h -3.89508 c -0.100225,0 -0.182226,-0.032863 -0.246005,-0.098591 C 14.51023,5.4694838 14.47834,5.3896723 14.47834,5.2957751 V 4.3521127 c 0,-0.1032869 0.03189,-0.1877931 0.09567,-0.2535212 C 14.637791,4.0328635 14.719792,4 14.820017,4 h 5.876787 c 0.100225,0 0.182226,0.032864 0.246005,0.098592 0.06378,0.065728 0.09567,0.1502343 0.09567,0.2535212 v 0.8591549 c 0,0.1596252 -0.05922,0.2910793 -0.177671,0.3943662 l -2.350715,2.4929578 0.164004,0.014084 c 0.874689,0.075118 1.569418,0.3474155 2.084209,0.8169014 0.514791,0.4694859 0.772183,1.1408405 0.772183,2.0140845 0,0.619721 -0.161724,1.159622 -0.485177,1.619718 -0.323453,0.460096 -0.769902,0.814553 -1.339361,1.063381 C 19.136491,13.875588 18.487318,14 17.75841,14 16.947501,14 16.261882,13.868546 15.701535,13.605634 Z m 8.77418,-0.05634 c -0.57857,-0.300471 -1.02502,-0.713613 -1.339361,-1.239437 -0.314341,-0.525824 -0.47151,-1.117368 -0.47151,-1.774648 0,-0.8262949 0.355337,-1.737084 1.066022,-2.7323941 L 26.218251,4.2816901 C 26.291141,4.187793 26.359475,4.1173711 26.423255,4.0704225 26.487034,4.0234739 26.578146,4 26.696594,4 h 1.29836 c 0.082,0 0.148058,0.030516 0.19817,0.091549 0.05011,0.061033 0.07517,0.1338024 0.07517,0.2183099 0,0.065728 -0.01822,0.1267602 -0.05467,0.1830986 l -1.913373,2.7183098 c 0.145782,-0.037559 0.337117,-0.056338 0.574012,-0.056338 0.61046,0.00939 1.173077,0.1619703 1.687868,0.4577465 0.514791,0.2957761 0.924795,0.6971805 1.230025,1.2042253 0.30523,0.5070448 0.457843,1.0704195 0.457843,1.6901409 0,0.638501 -0.152613,1.223002 -0.457843,1.753521 -0.30523,0.53052 -0.742568,0.95305 -1.312027,1.267606 C 27.910671,13.842725 27.247831,14 26.49159,14 25.726237,14 25.054285,13.849767 24.475715,13.549296 Z m 3.286901,-1.669014 c 0.355342,-0.323946 0.533011,-0.772298 0.533011,-1.345071 0,-0.5633828 -0.175391,-1.0070404 -0.526178,-1.3309856 -0.350787,-0.3239453 -0.785847,-0.4859155 -1.305193,-0.4859155 -0.510236,0 -0.94074,0.1619702 -1.291527,0.4859155 -0.350787,0.3239452 -0.526177,0.7676028 -0.526177,1.3309856 0,0.572773 0.17539,1.021125 0.526177,1.345071 0.350787,0.323945 0.781291,0.485915 1.291527,0.485915 0.510235,0 0.943017,-0.16197 1.29836,-0.485915 z"
         id="36-"
         inkscape:connector-curvature="0"
         style="fill:#ffffff" />
    </g>
  </g>
  <text
     xml:space="preserve"
     style="font-style:normal;font-variant:normal;font-weight:normal;font-stretch:normal;font-size:40px;line-height:1.25;font-family:Rubik;-inkscape-font-specification:Rubik;letter-spacing:0px;word-spacing:0px;fill:#01152c;fill-opacity:1;stroke:none"
     x="39.76004"
     y="29.577742"
     id="text851-3"><tspan
       sodipodi:role="line"
       x="39.76004"
       y="29.577742"
       style="font-style:normal;font-variant:normal;font-weight:normal;font-stretch:normal;font-size:16px;font-family:Rubik;-inkscape-font-specification:Rubik;fill:#01152c;fill-opacity:1"
       id="tspan862-6"><tspan
   style="font-size:14.66666698px"
   id="tspan886">KYC</tspan>-network</tspan></text>
</svg>

<?xml version="1.0" encoding="UTF-8"?>
<svg width="140px" height="48px" viewBox="0 0 140 48" version="1.1" xmlns="http://www.w3.org/2000/svg" xmlns:xlink="http://www.w3.org/1999/xlink">
    <!-- Generator: sketchtool 52.2 (67145) - http://www.bohemiancoding.com/sketch -->
    <title>BF7468AE-16BB-4698-8F41-BE253E1D10E6</title>
    <desc>Created with sketchtool.</desc>
    <defs>
        <linearGradient x1="63.8375539%" y1="31.9058287%" x2="0%" y2="115.334302%" id="linearGradient-1">
            <stop stop-color="#63B4F5" offset="0%"></stop>
            <stop stop-color="#017EE5" offset="100%"></stop>
        </linearGradient>
    </defs>
    <g id="Web-App---Desktop" stroke="none" stroke-width="1" fill="none" fill-rule="evenodd">
        <g id="Login" transform="translate(-55.000000, -46.000000)">
            <g id="Logo" transform="translate(55.000000, 46.000000)">
                <path d="M51.238,29.18 C49.8939933,29.18 48.8290039,28.7960038 48.043,28.028 C47.2569961,27.2599962 46.8400002,26.1680071 46.792,24.752 L46.774,24.302 C46.774,22.8019925 47.1669961,21.6200043 47.953,20.756 C48.7390039,19.8919957 49.827993,19.46 51.22,19.46 C52.6480071,19.46 53.7489961,19.8919957 54.523,20.756 C55.2970039,21.6200043 55.684,22.7719928 55.684,24.212 L55.684,24.59 C55.684,24.7100006 55.6420004,24.8119996 55.558,24.896 C55.4739996,24.9800004 55.3660007,25.022 55.234,25.022 L49.258,25.022 L49.258,25.166 C49.2820001,25.8380034 49.4649983,26.3929978 49.807,26.831 C50.1490017,27.2690022 50.619997,27.488 51.22,27.488 C51.9040034,27.488 52.4619978,27.2120028 52.894,26.66 C53.0020005,26.5279993 53.0859997,26.4470002 53.146,26.417 C53.2060003,26.3869998 53.3079993,26.372 53.452,26.372 L55.036,26.372 C55.1440005,26.372 55.2369996,26.4019997 55.315,26.462 C55.3930004,26.5220003 55.432,26.6059995 55.432,26.714 C55.432,27.0020014 55.2610017,27.340998 54.919,27.731 C54.5769983,28.121002 54.0880032,28.4599986 53.452,28.748 C52.8159968,29.0360014 52.0780042,29.18 51.238,29.18 Z M53.2,23.492 L53.2,23.456 C53.2,22.7479965 53.0230018,22.1810021 52.669,21.755 C52.3149982,21.3289979 51.8320031,21.116 51.22,21.116 C50.6079969,21.116 50.1280017,21.3289979 49.78,21.755 C49.4319983,22.1810021 49.258,22.7479965 49.258,23.456 L49.258,23.492 L53.2,23.492 Z M58.042,29 C57.9219994,29 57.8200004,28.9580004 57.736,28.874 C57.6519996,28.7899996 57.61,28.6880006 57.61,28.568 L57.61,16.652 C57.61,16.5199993 57.6519996,16.4150004 57.736,16.337 C57.8200004,16.2589996 57.9219994,16.22 58.042,16.22 L59.554,16.22 C59.6860007,16.22 59.7909996,16.2589996 59.869,16.337 C59.9470004,16.4150004 59.986,16.5199993 59.986,16.652 L59.986,28.568 C59.986,28.6880006 59.9470004,28.7899996 59.869,28.874 C59.7909996,28.9580004 59.6860007,29 59.554,29 L58.042,29 Z M66.43,29.18 C65.0859933,29.18 64.0210039,28.7960038 63.235,28.028 C62.4489961,27.2599962 62.0320002,26.1680071 61.984,24.752 L61.966,24.302 C61.966,22.8019925 62.3589961,21.6200043 63.145,20.756 C63.9310039,19.8919957 65.019993,19.46 66.412,19.46 C67.8400071,19.46 68.9409961,19.8919957 69.715,20.756 C70.4890039,21.6200043 70.876,22.7719928 70.876,24.212 L70.876,24.59 C70.876,24.7100006 70.8340004,24.8119996 70.75,24.896 C70.6659996,24.9800004 70.5580007,25.022 70.426,25.022 L64.45,25.022 L64.45,25.166 C64.4740001,25.8380034 64.6569983,26.3929978 64.999,26.831 C65.3410017,27.2690022 65.811997,27.488 66.412,27.488 C67.0960034,27.488 67.6539978,27.2120028 68.086,26.66 C68.1940005,26.5279993 68.2779997,26.4470002 68.338,26.417 C68.3980003,26.3869998 68.4999993,26.372 68.644,26.372 L70.228,26.372 C70.3360005,26.372 70.4289996,26.4019997 70.507,26.462 C70.5850004,26.5220003 70.624,26.6059995 70.624,26.714 C70.624,27.0020014 70.4530017,27.340998 70.111,27.731 C69.7689983,28.121002 69.2800032,28.4599986 68.644,28.748 C68.0079968,29.0360014 67.2700042,29.18 66.43,29.18 Z M68.392,23.492 L68.392,23.456 C68.392,22.7479965 68.2150018,22.1810021 67.861,21.755 C67.5069982,21.3289979 67.0240031,21.116 66.412,21.116 C65.7999969,21.116 65.3200017,21.3289979 64.972,21.755 C64.6239983,22.1810021 64.45,22.7479965 64.45,23.456 L64.45,23.492 L68.392,23.492 Z M73.216,29 C73.0959994,29 72.9940004,28.9580004 72.91,28.874 C72.8259996,28.7899996 72.784,28.6880006 72.784,28.568 L72.784,20.072 C72.784,19.9399993 72.8259996,19.8350004 72.91,19.757 C72.9940004,19.6789996 73.0959994,19.64 73.216,19.64 L74.638,19.64 C74.7700007,19.64 74.8749996,19.6789996 74.953,19.757 C75.0310004,19.8350004 75.07,19.9399993 75.07,20.072 L75.07,20.684 C75.7180032,19.8679959 76.5879945,19.46 77.68,19.46 C79.0120067,19.46 79.9419974,19.9939947 80.47,21.062 C80.7580014,20.5819976 81.1659974,20.1950015 81.694,19.901 C82.2220026,19.6069985 82.7919969,19.46 83.404,19.46 C84.3880049,19.46 85.1919969,19.7959966 85.816,20.468 C86.4400031,21.1400034 86.752,22.1179936 86.752,23.402 L86.752,28.568 C86.752,28.6880006 86.7130004,28.7899996 86.635,28.874 C86.5569996,28.9580004 86.4520007,29 86.32,29 L84.826,29 C84.7059994,29 84.6040004,28.9580004 84.52,28.874 C84.4359996,28.7899996 84.394,28.6880006 84.394,28.568 L84.394,23.546 C84.394,22.7899962 84.2350016,22.2440017 83.917,21.908 C83.5989984,21.5719983 83.1820026,21.404 82.666,21.404 C82.1979977,21.404 81.7990017,21.5749983 81.469,21.917 C81.1389984,22.2590017 80.974,22.8019963 80.974,23.546 L80.974,28.568 C80.974,28.6880006 80.9350004,28.7899996 80.857,28.874 C80.7789996,28.9580004 80.6740007,29 80.542,29 L79.03,29 C78.9099994,29 78.8080004,28.9580004 78.724,28.874 C78.6399996,28.7899996 78.598,28.6880006 78.598,28.568 L78.598,23.546 C78.598,22.8019963 78.4360016,22.2590017 78.112,21.917 C77.7879984,21.5749983 77.3740025,21.404 76.87,21.404 C76.4019977,21.404 76.0030017,21.5749983 75.673,21.917 C75.3429984,22.2590017 75.178,22.8019963 75.178,23.546 L75.178,28.568 C75.178,28.6880006 75.1390004,28.7899996 75.061,28.874 C74.9829996,28.9580004 74.8780007,29 74.746,29 L73.216,29 Z M93.088,29.18 C91.7439933,29.18 90.6790039,28.7960038 89.893,28.028 C89.1069961,27.2599962 88.6900002,26.1680071 88.642,24.752 L88.624,24.302 C88.624,22.8019925 89.0169961,21.6200043 89.803,20.756 C90.5890039,19.8919957 91.677993,19.46 93.07,19.46 C94.4980071,19.46 95.5989961,19.8919957 96.373,20.756 C97.1470039,21.6200043 97.534,22.7719928 97.534,24.212 L97.534,24.59 C97.534,24.7100006 97.4920004,24.8119996 97.408,24.896 C97.3239996,24.9800004 97.2160007,25.022 97.084,25.022 L91.108,25.022 L91.108,25.166 C91.1320001,25.8380034 91.3149983,26.3929978 91.657,26.831 C91.9990017,27.2690022 92.469997,27.488 93.07,27.488 C93.7540034,27.488 94.3119978,27.2120028 94.744,26.66 C94.8520005,26.5279993 94.9359997,26.4470002 94.996,26.417 C95.0560003,26.3869998 95.1579993,26.372 95.302,26.372 L96.886,26.372 C96.9940005,26.372 97.0869996,26.4019997 97.165,26.462 C97.2430004,26.5220003 97.282,26.6059995 97.282,26.714 C97.282,27.0020014 97.1110017,27.340998 96.769,27.731 C96.4269983,28.121002 95.9380032,28.4599986 95.302,28.748 C94.6659968,29.0360014 93.9280042,29.18 93.088,29.18 Z M95.05,23.492 L95.05,23.456 C95.05,22.7479965 94.8730018,22.1810021 94.519,21.755 C94.1649982,21.3289979 93.6820031,21.116 93.07,21.116 C92.4579969,21.116 91.9780017,21.3289979 91.63,21.755 C91.2819983,22.1810021 91.108,22.7479965 91.108,23.456 L91.108,23.492 L95.05,23.492 Z M99.874,29 C99.7539994,29 99.6520004,28.9580004 99.568,28.874 C99.4839996,28.7899996 99.442,28.6880006 99.442,28.568 L99.442,20.072 C99.442,19.9399993 99.4839996,19.8350004 99.568,19.757 C99.6520004,19.6789996 99.7539994,19.64 99.874,19.64 L101.368,19.64 C101.500001,19.64 101.605,19.6789996 101.683,19.757 C101.761,19.8350004 101.8,19.9399993 101.8,20.072 L101.8,20.81 C102.532004,19.9099955 103.533994,19.46 104.806,19.46 C105.910006,19.46 106.785997,19.8199964 107.434,20.54 C108.082003,21.2600036 108.406,22.2499937 108.406,23.51 L108.406,28.568 C108.406,28.6880006 108.367,28.7899996 108.289,28.874 C108.211,28.9580004 108.106001,29 107.974,29 L106.354,29 C106.233999,29 106.132,28.9580004 106.048,28.874 C105.964,28.7899996 105.922,28.6880006 105.922,28.568 L105.922,23.618 C105.922,22.9219965 105.751002,22.3790019 105.409,21.989 C105.066998,21.598998 104.578003,21.404 103.942,21.404 C103.329997,21.404 102.838002,21.601998 102.466,21.998 C102.093998,22.394002 101.908,22.9339966 101.908,23.618 L101.908,28.568 C101.908,28.6880006 101.869,28.7899996 101.791,28.874 C101.713,28.9580004 101.608001,29 101.476,29 L99.874,29 Z M114.94,29 C113.847995,29 113.026003,28.7150028 112.474,28.145 C111.921997,27.5749972 111.646,26.7380055 111.646,25.634 L111.646,21.566 L110.224,21.566 C110.103999,21.566 110.002,21.5240004 109.918,21.44 C109.834,21.3559996 109.792,21.2540006 109.792,21.134 L109.792,20.072 C109.792,19.9519994 109.834,19.8500004 109.918,19.766 C110.002,19.6819996 110.103999,19.64 110.224,19.64 L111.646,19.64 L111.646,16.652 C111.646,16.5199993 111.688,16.4150004 111.772,16.337 C111.856,16.2589996 111.957999,16.22 112.078,16.22 L113.572,16.22 C113.704001,16.22 113.809,16.2589996 113.887,16.337 C113.965,16.4150004 114.004,16.5199993 114.004,16.652 L114.004,19.64 L116.254,19.64 C116.374001,19.64 116.476,19.6819996 116.56,19.766 C116.644,19.8500004 116.686,19.9519994 116.686,20.072 L116.686,21.134 C116.686,21.2540006 116.644,21.3559996 116.56,21.44 C116.476,21.5240004 116.374001,21.566 116.254,21.566 L114.004,21.566 L114.004,25.436 C114.004,25.9520026 114.093999,26.3419987 114.274,26.606 C114.454001,26.8700013 114.747998,27.002 115.156,27.002 L116.416,27.002 C116.548001,27.002 116.653,27.0409996 116.731,27.119 C116.809,27.1970004 116.848,27.3019993 116.848,27.434 L116.848,28.568 C116.848,28.6880006 116.809,28.7899996 116.731,28.874 C116.653,28.9580004 116.548001,29 116.416,29 L114.94,29 Z M122.878,29.18 C121.809995,29.18 120.907004,29.0120017 120.169,28.676 C119.430996,28.3399983 118.879002,27.9170025 118.513,27.407 C118.146998,26.8969975 117.952,26.3720027 117.928,25.832 C117.928,25.7239995 117.964,25.6340004 118.036,25.562 C118.108,25.4899996 118.197999,25.454 118.306,25.454 L119.962,25.454 C120.226001,25.454 120.406,25.5739988 120.502,25.814 C120.766001,26.6660043 121.557993,27.092 122.878,27.092 C123.610004,27.092 124.182998,26.9240017 124.597,26.588 C125.011002,26.2519983 125.218,25.7720031 125.218,25.148 C125.218,24.5239969 125.029002,24.0710014 124.651,23.789 C124.272998,23.5069986 123.718004,23.366 122.986,23.366 L121.132,23.366 C121.011999,23.366 120.91,23.3240004 120.826,23.24 C120.742,23.1559996 120.7,23.0540006 120.7,22.934 L120.7,22.16 C120.7,21.9319989 120.777999,21.7520007 120.934,21.62 L124.138,18.488 L119.008,18.488 C118.875999,18.488 118.768,18.4460004 118.684,18.362 C118.6,18.2779996 118.558,18.1760006 118.558,18.056 L118.558,16.85 C118.558,16.7179993 118.6,16.6100004 118.684,16.526 C118.768,16.4419996 118.875999,16.4 119.008,16.4 L126.748,16.4 C126.880001,16.4 126.988,16.4419996 127.072,16.526 C127.156,16.6100004 127.198,16.7179993 127.198,16.85 L127.198,17.948 C127.198,18.152001 127.120001,18.3199993 126.964,18.452 L123.868,21.638 L124.084,21.656 C125.236006,21.7520005 126.150997,22.099997 126.829,22.7 C127.507003,23.300003 127.846,24.1579944 127.846,25.274 C127.846,26.066004 127.633002,26.7559971 127.207,27.344 C126.780998,27.9320029 126.193004,28.3849984 125.443,28.703 C124.692996,29.0210016 123.838005,29.18 122.878,29.18 Z M134.38,29.18 C133.371995,29.18 132.487004,28.9880019 131.725,28.604 C130.962996,28.2199981 130.375002,27.6920034 129.961,27.02 C129.546998,26.3479966 129.34,25.5920042 129.34,24.752 C129.34,23.6959947 129.807995,22.5320064 130.744,21.26 L134.02,16.76 C134.116,16.6399994 134.206,16.5500003 134.29,16.49 C134.374,16.4299997 134.493999,16.4 134.65,16.4 L136.36,16.4 C136.468001,16.4 136.555,16.4389996 136.621,16.517 C136.687,16.5950004 136.72,16.6879995 136.72,16.796 C136.72,16.8800004 136.696,16.9579996 136.648,17.03 L134.128,20.504 C134.320001,20.4559998 134.571998,20.432 134.884,20.432 C135.688004,20.4440001 136.428997,20.6389981 137.107,21.017 C137.785003,21.3950019 138.324998,21.9079968 138.727,22.556 C139.129002,23.2040032 139.33,23.923996 139.33,24.716 C139.33,25.5320041 139.129002,26.2789966 138.727,26.957 C138.324998,27.6350034 137.749004,28.174998 136.999,28.577 C136.248996,28.979002 135.376005,29.18 134.38,29.18 Z M134.344,27.092 C135.016003,27.092 135.585998,26.8850021 136.054,26.471 C136.522002,26.0569979 136.756,25.4840037 136.756,24.752 C136.756,24.0319964 136.525002,23.4650021 136.063,23.051 C135.600998,22.6369979 135.028003,22.43 134.344,22.43 C133.671997,22.43 133.105002,22.6369979 132.643,23.051 C132.180998,23.4650021 131.95,24.0319964 131.95,24.752 C131.95,25.4840037 132.180998,26.0569979 132.643,26.471 C133.105002,26.8850021 133.671997,27.092 134.344,27.092 Z" id="element36" fill="#01152C"></path>
                <g id="Group-6">
                    <path d="M4,0 L30,0 C32.209139,-4.05812251e-16 34,1.790861 34,4 L34,44 C34,46.209139 32.209139,48 30,48 L4,48 C1.790861,48 2.705415e-16,46.209139 0,44 L0,4 C-2.705415e-16,1.790861 1.790861,4.05812251e-16 4,0 Z" id="Container--2" fill="url(#linearGradient-1)"></path>
                    <path d="M15.7015349,13.6056338 C15.1411873,13.3427217 14.7220718,13.0117391 14.4441758,12.6126761 C14.1662798,12.213613 14.0182227,11.802819 14,11.3802817 C14,11.2957742 14.0273336,11.2253524 14.0820017,11.1690141 C14.1366697,11.1126758 14.2050038,11.084507 14.2870059,11.084507 L15.544365,11.084507 C15.7448146,11.084507 15.8814827,11.1784028 15.9543734,11.3661972 C16.154823,12.0328672 16.7561626,12.3661972 17.7584104,12.3661972 C18.3142024,12.3661972 18.7492625,12.2347431 19.0636039,11.971831 C19.3779452,11.7089189 19.5351135,11.3333358 19.5351135,10.8450704 C19.5351135,10.3568051 19.391612,10.0023485 19.1046047,9.78169014 C18.8175974,9.56103176 18.3962041,9.45070423 17.8404121,9.45070423 L16.4327166,9.45070423 C16.3416031,9.45070423 16.2641579,9.4178407 16.2003785,9.35211268 C16.1365991,9.28638465 16.1047098,9.20657324 16.1047098,9.11267606 L16.1047098,8.50704225 C16.1047098,8.32863761 16.1639327,8.18779394 16.2823802,8.08450704 L18.7150967,5.63380282 L14.8200168,5.63380282 C14.719792,5.63380282 14.6377912,5.6009393 14.5740118,5.53521127 C14.5102324,5.46948324 14.4783431,5.38967183 14.4783431,5.29577465 L14.4783431,4.35211268 C14.4783431,4.24882577 14.5102324,4.16431958 14.5740118,4.09859155 C14.6377912,4.03286352 14.719792,4 14.8200168,4 L20.696804,4 C20.7970288,4 20.8790297,4.03286352 20.9428091,4.09859155 C21.0065885,4.16431958 21.0384777,4.24882577 21.0384777,4.35211268 L21.0384777,5.21126761 C21.0384777,5.37089282 20.9792549,5.5023469 20.8608074,5.6056338 L18.5100925,8.09859155 L18.6740959,8.11267606 C19.5487849,8.1877938 20.2435144,8.46009155 20.7583053,8.92957746 C21.2730962,9.39906338 21.5304878,10.0704182 21.5304878,10.943662 C21.5304878,11.5633834 21.3687639,12.1032841 21.0453112,12.5633803 C20.7218585,13.0234765 20.2754094,13.377933 19.7059504,13.6267606 C19.1364914,13.8755881 18.4873179,14 17.7584104,14 C16.9475009,14 16.2618825,13.8685459 15.7015349,13.6056338 Z M24.4757149,13.5492958 C23.8971446,13.2488248 23.4506954,12.8356834 23.1363541,12.3098592 C22.8220127,11.7840349 22.6648444,11.1924915 22.6648444,10.5352113 C22.6648444,9.70891606 23.0201815,8.79812704 23.7308663,7.8028169 L26.2182506,4.28169014 C26.2911414,4.18779296 26.3594754,4.11737113 26.4232548,4.07042254 C26.4870342,4.02347394 26.5781463,4 26.6965938,4 L27.9949537,4 C28.0769558,4 28.1430121,4.03051613 28.1931245,4.0915493 C28.2432369,4.15258246 28.2682927,4.22535169 28.2682927,4.30985915 C28.2682927,4.37558718 28.2500703,4.43661944 28.2136249,4.49295775 L26.3002523,7.21126761 C26.4460338,7.17370873 26.6373692,7.15492958 26.8742641,7.15492958 C27.4847241,7.1643193 28.0473411,7.31689993 28.562132,7.61267606 C29.076923,7.90845218 29.4869273,8.30985662 29.7921573,8.81690141 C30.0973873,9.3239462 30.25,9.88732085 30.25,10.5070423 C30.25,11.1455431 30.0973873,11.7300443 29.7921573,12.2605634 C29.4869273,12.7910825 29.0495893,13.2136135 28.4801304,13.528169 C27.9106714,13.8427246 27.2478311,14 26.4915896,14 C25.7262367,14 25.0542852,13.8497668 24.4757149,13.5492958 Z M27.7626156,11.8802817 C28.117958,11.5563364 28.2956266,11.1079841 28.2956266,10.5352113 C28.2956266,9.97182817 28.1202358,9.52817063 27.7694491,9.20422535 C27.4186624,8.88028007 26.9836023,8.71830986 26.4642557,8.71830986 C25.9540204,8.71830986 25.5235159,8.88028007 25.1727292,9.20422535 C24.8219425,9.52817063 24.6465517,9.97182817 24.6465517,10.5352113 C24.6465517,11.1079841 24.8219425,11.5563364 25.1727292,11.8802817 C25.5235159,12.204227 25.9540204,12.3661972 26.4642557,12.3661972 C26.9744909,12.3661972 27.4072732,12.204227 27.7626156,11.8802817 Z" id="36-" fill="#FFFFFF"></path>
                </g>
            </g>
        </g>
    </g>
</svg>
